X:382
%%etbk:tnset id:108,pos:1,rep:3x,ant:
%%etbk:wsite http://www.thesession.org/tunes/display/148
%%etbk:pldat 2014-04-27T15:20,2014-04-12T15:52,2013-11-13T16:01
T: Dever The Dancer
Z: Piano Box Version by Martin Fleischmann
H: Created 2013-02-19 /  Last Modified 2013-02-19
M: 9/8
L: 1/8
R: slip jig
K: Emin
|: "em"!5!B!1!EE BEF !3!GGG | !5!B!1!EE BAG !2!FGA | !5!BEE BEF G2!4!A | !2!Bc!4!d "D"!2!AA!1!G !3!FED:|
|: "D"!5!d!1!Fd !4!c!2!A!1!F "G"!1!G2G | "D"!5!d2!2!d !2!def !5!gfe | !2!d2!5!d !4!c!2!A!1!F "G"!1!G2z | !2!Bc!4!d "D"!2!AA!1!G !3!FED:|


